Newaita-dark/apps/256/ipython.svg

<?xml version="1.0" encoding="UTF-8"?>
<svg xmlns="http://www.w3.org/2000/svg" xmlns:xlink="http://www.w3.org/1999/xlink" width="256pt" height="256pt" viewBox="0 0 256 256" version="1.1">
<defs>
<linearGradient id="linear0" gradientUnits="userSpaceOnUse" x1="254" y1="233.5" x2="254" y2="254.666672" gradientTransform="matrix(0.500048,0,0,0.500048,-0.0000305205,107.510266)">
<stop offset="0" style="stop-color:rgb(0%,0%,0%);stop-opacity:0.27451;"/>
<stop offset="1" style="stop-color:rgb(0%,0%,0%);stop-opacity:0;"/>
</linearGradient>
<radialGradient id="radial0" gradientUnits="userSpaceOnUse" cx="450.908936" cy="189.579361" fx="450.908936" fy="189.579361" r="21.166656" gradientTransform="matrix(0.00000139336,-0.62506,-1.125108,-0.000000812309,427.629528,508.762645)">
<stop offset="0" style="stop-color:rgb(0%,0%,0%);stop-opacity:0.313725;"/>
<stop offset="0.222222" style="stop-color:rgb(0%,0%,0%);stop-opacity:0.27451;"/>
<stop offset="1" style="stop-color:rgb(0%,0%,0%);stop-opacity:0;"/>
</radialGradient>
<radialGradient id="radial1" gradientUnits="userSpaceOnUse" cx="450.908936" cy="189.579361" fx="450.908936" fy="189.579361" r="21.166656" gradientTransform="matrix(-0.00000139336,0.62506,1.125108,0.000000812309,-173.605291,-60.219846)">
<stop offset="0" style="stop-color:rgb(0%,0%,0%);stop-opacity:0.313725;"/>
<stop offset="0.222222" style="stop-color:rgb(0%,0%,0%);stop-opacity:0.27451;"/>
<stop offset="1" style="stop-color:rgb(0%,0%,0%);stop-opacity:0;"/>
</radialGradient>
<radialGradient id="radial2" gradientUnits="userSpaceOnUse" cx="450.908936" cy="189.579361" fx="450.908936" fy="189.579361" r="21.166656" gradientTransform="matrix(-0.00000139336,-0.62506,1.125108,-0.000000812309,-173.605291,508.762645)">
<stop offset="0" style="stop-color:rgb(0%,0%,0%);stop-opacity:0.313725;"/>
<stop offset="0.222222" style="stop-color:rgb(0%,0%,0%);stop-opacity:0.27451;"/>
<stop offset="1" style="stop-color:rgb(0%,0%,0%);stop-opacity:0;"/>
</radialGradient>
<radialGradient id="radial3" gradientUnits="userSpaceOnUse" cx="450.908936" cy="189.579361" fx="450.908936" fy="189.579361" r="21.166656" gradientTransform="matrix(0.00000139336,0.62506,-1.125108,0.000000812309,427.629513,-60.21985)">
<stop offset="0" style="stop-color:rgb(0%,0%,0%);stop-opacity:0.313725;"/>
<stop offset="0.222222" style="stop-color:rgb(0%,0%,0%);stop-opacity:0.27451;"/>
<stop offset="1" style="stop-color:rgb(0%,0%,0%);stop-opacity:0;"/>
</radialGradient>
<linearGradient id="linear1" gradientUnits="userSpaceOnUse" x1="306.916656" y1="-25.791676" x2="305.954559" y2="-135.329163" gradientTransform="matrix(0.602797,0,0,1.739297,-46.832105,269.130786)">
<stop offset="0" style="stop-color:rgb(25.882353%,25.882353%,25.882353%);stop-opacity:1;"/>
<stop offset="1" style="stop-color:rgb(38.039216%,38.039216%,38.039216%);stop-opacity:1;"/>
</linearGradient>
<linearGradient id="linear2" gradientUnits="userSpaceOnUse" x1="84.666664" y1="233.5" x2="84.666664" y2="-168.666656" gradientTransform="matrix(3.779528,0,0,3.779528,-40.000038,852.598389)">
<stop offset="0" style="stop-color:rgb(25.882353%,64.705882%,96.078431%);stop-opacity:1;"/>
<stop offset="1" style="stop-color:rgb(39.215686%,70.980392%,96.470588%);stop-opacity:1;"/>
</linearGradient>
<linearGradient id="linear3" gradientUnits="userSpaceOnUse" x1="402.166656" y1="0.666667" x2="402.166656" y2="-31.083334" gradientTransform="matrix(1,0,0,1,31.749987,10.583327)">
<stop offset="0" style="stop-color:rgb(25.882353%,64.705882%,96.078431%);stop-opacity:1;"/>
<stop offset="1" style="stop-color:rgb(39.215686%,70.980392%,96.470588%);stop-opacity:1;"/>
</linearGradient>
<linearGradient id="linear4" gradientUnits="userSpaceOnUse" x1="402.166656" y1="95.916664" x2="402.166656" y2="64.166664" gradientTransform="matrix(1,0,0,1,31.749987,10.583327)">
<stop offset="0" style="stop-color:rgb(25.882353%,64.705882%,96.078431%);stop-opacity:1;"/>
<stop offset="1" style="stop-color:rgb(39.215686%,70.980392%,96.470588%);stop-opacity:1;"/>
</linearGradient>
<linearGradient id="linear5" gradientUnits="userSpaceOnUse" x1="158.75" y1="148.833328" x2="158.75" y2="-84" gradientTransform="matrix(1,0,0,1,42.333336,10.583327)">
<stop offset="0" style="stop-color:rgb(25.882353%,64.705882%,96.078431%);stop-opacity:1;"/>
<stop offset="1" style="stop-color:rgb(39.215686%,70.980392%,96.470588%);stop-opacity:1;"/>
</linearGradient>
<linearGradient id="linear6" gradientUnits="userSpaceOnUse" x1="338.666656" y1="148.833328" x2="338.666656" y2="-84" gradientTransform="matrix(1,0,0,1,31.749987,10.583327)">
<stop offset="0" style="stop-color:rgb(25.882353%,64.705882%,96.078431%);stop-opacity:1;"/>
<stop offset="1" style="stop-color:rgb(39.215686%,70.980392%,96.470588%);stop-opacity:1;"/>
</linearGradient>
<linearGradient id="linear7" gradientUnits="userSpaceOnUse" x1="960" y1="1255.118164" x2="960" y2="655.118103" gradientTransform="matrix(0.264583,0,0,0.264583,31.749987,-204.416672)">
<stop offset="0" style="stop-color:rgb(87.843137%,87.843137%,87.843137%);stop-opacity:1;"/>
<stop offset="1" style="stop-color:rgb(93.333333%,93.333333%,93.333333%);stop-opacity:1;"/>
</linearGradient>
</defs>
<g id="surface1">
<path style=" stroke:none;fill-rule:nonzero;fill:url(#linear0);" d="M 37.046875 224.269531 L 216.980469 224.269531 L 216.980469 234.855469 L 37.046875 234.855469 Z M 37.046875 224.269531 "/>
<path style=" stroke:none;fill-rule:nonzero;fill:url(#radial0);" d="M 216.980469 224.269531 L 238.148438 224.269531 L 238.148438 213.6875 L 216.980469 213.6875 Z M 216.980469 224.269531 "/>
<path style=" stroke:none;fill-rule:nonzero;fill:url(#radial1);" d="M 37.046875 224.269531 L 15.875 224.269531 L 15.875 234.855469 L 37.046875 234.855469 Z M 37.046875 224.269531 "/>
<path style=" stroke:none;fill-rule:nonzero;fill:url(#radial2);" d="M 37.046875 224.269531 L 15.875 224.269531 L 15.875 213.6875 L 37.046875 213.6875 Z M 37.046875 224.269531 "/>
<path style=" stroke:none;fill-rule:nonzero;fill:url(#radial3);" d="M 216.980469 224.269531 L 238.148438 224.269531 L 238.148438 234.855469 L 216.980469 234.855469 Z M 216.980469 224.269531 "/>
<path style=" stroke:none;fill-rule:nonzero;fill:url(#linear1);" d="M 26.460938 33.753906 L 227.5625 33.753906 C 233.410156 33.753906 238.148438 38.492188 238.148438 44.335938 L 238.148438 213.6875 C 238.148438 219.53125 233.410156 224.269531 227.5625 224.269531 L 26.460938 224.269531 C 20.617188 224.269531 15.875 219.53125 15.875 213.6875 L 15.875 44.335938 C 15.875 38.492188 20.617188 33.753906 26.460938 33.753906 Z M 26.460938 33.753906 "/>
<path style="fill-rule:nonzero;fill:url(#linear2);stroke-width:11.338583;stroke-linecap:round;stroke-linejoin:round;stroke:rgb(12.941177%,12.941177%,12.941177%);stroke-opacity:1;stroke-miterlimit:4;" d="M 200.000596 255.123288 C 155.68396 255.123288 119.988548 290.789175 119.988548 335.105812 L 119.988548 1615.121439 C 119.988548 1659.438076 155.68396 1695.103963 200.000596 1695.103963 L 519.989741 1695.103963 L 519.989741 255.123288 Z M 200.000596 255.123288 " transform="matrix(0.132304,0,0,0.132304,0,0)"/>
<path style=" stroke:none;fill-rule:nonzero;fill:rgb(0%,0%,0%);fill-opacity:0.235294;" d="M 26.460938 224.375 C 20.597656 224.375 15.875 219.65625 15.875 213.792969 L 15.875 211.039062 C 15.875 216.90625 20.597656 221.625 26.460938 221.625 L 227.5625 221.625 C 233.425781 221.625 238.148438 216.90625 238.148438 211.039062 L 238.148438 213.792969 C 238.148438 219.65625 233.425781 224.375 227.5625 224.375 Z M 26.460938 224.375 "/>
<path style=" stroke:none;fill-rule:nonzero;fill:rgb(100%,100%,100%);fill-opacity:0.392157;" d="M 26.460938 34.363281 C 20.597656 34.363281 15.875 39.085938 15.875 44.949219 L 15.875 47.699219 C 15.875 41.835938 20.597656 37.113281 26.460938 37.113281 L 227.5625 37.113281 C 233.425781 37.113281 238.148438 41.835938 238.148438 47.699219 L 238.148438 44.949219 C 238.148438 39.085938 233.425781 34.363281 227.5625 34.363281 Z M 26.460938 34.363281 "/>
<path style=" stroke:none;fill-rule:nonzero;fill:rgb(12.941177%,12.941177%,12.941177%);fill-opacity:1;" d="M 26.460938 33.003906 C 20.195312 33.003906 15.125 38.070312 15.125 44.335938 L 15.125 213.6875 C 15.125 219.953125 20.195312 225.023438 26.460938 225.023438 L 227.5625 225.023438 C 233.828125 225.023438 238.898438 219.953125 238.898438 213.6875 L 238.898438 44.335938 C 238.898438 38.070312 233.828125 33.003906 227.5625 33.003906 Z M 26.460938 34.503906 L 227.5625 34.503906 C 233.023438 34.503906 237.398438 38.875 237.398438 44.335938 L 237.398438 213.6875 C 237.398438 219.148438 233.023438 223.519531 227.5625 223.519531 L 26.460938 223.519531 C 21 223.519531 16.625 219.148438 16.625 213.6875 L 16.625 44.335938 C 16.625 38.875 21 34.503906 26.460938 34.503906 Z M 26.460938 34.503906 "/>
<path style="fill-rule:nonzero;fill:url(#linear3);stroke-width:3;stroke-linecap:round;stroke-linejoin:round;stroke:rgb(12.941177%,12.941177%,12.941177%);stroke-opacity:1;stroke-miterlimit:4;" d="M 439.208058 -20.502949 C 447.972846 -20.502949 455.081542 -13.394252 455.081542 -4.621653 C 455.081542 4.143135 447.972846 11.251832 439.208058 11.251832 C 430.44327 11.251832 423.334574 4.143135 423.334574 -4.621653 C 423.334574 -13.394252 430.44327 -20.502949 439.208058 -20.502949 Z M 439.208058 -20.502949 " transform="matrix(0.500048,0,0,0.500048,0,107.510266)"/>
<path style="fill-rule:nonzero;fill:url(#linear4);stroke-width:3;stroke-linecap:round;stroke-linejoin:round;stroke:rgb(12.941177%,12.941177%,12.941177%);stroke-opacity:1;stroke-miterlimit:4;" d="M 439.208058 74.75358 C 447.972846 74.75358 455.081542 81.854464 455.081542 90.627064 C 455.081542 99.391852 447.972846 106.500548 439.208058 106.500548 C 430.44327 106.500548 423.334574 99.391852 423.334574 90.627064 C 423.334574 81.854464 430.44327 74.75358 439.208058 74.75358 Z M 439.208058 74.75358 " transform="matrix(0.500048,0,0,0.500048,0,107.510266)"/>
<path style="fill-rule:nonzero;fill:url(#linear5);stroke-width:3;stroke-linecap:round;stroke-linejoin:round;stroke:rgb(12.941177%,12.941177%,12.941177%);stroke-opacity:1;stroke-miterlimit:4;" d="M 194.864204 -73.41977 C 190.786468 -73.41977 187.09932 -71.693373 184.412077 -68.904576 C 181.631093 -66.209521 179.920318 -62.537997 179.920318 -58.468073 L 179.920318 144.465673 C 179.920318 148.535597 181.631093 152.214933 184.412077 154.902176 C 187.09932 157.698784 190.786468 159.41737 194.864204 159.41737 L 232.83714 159.41737 C 241.625363 159.41737 248.710624 152.746132 248.710624 144.465673 L 248.710624 142.614287 C 248.710624 134.333828 241.625363 127.66259 232.83714 127.66259 L 211.667287 127.66259 L 211.667287 -41.66499 L 232.83714 -41.66499 C 241.625363 -41.66499 248.710624 -48.336228 248.710624 -56.616687 L 248.710624 -58.468073 C 248.710624 -66.748532 241.625363 -73.41977 232.83714 -73.41977 Z M 194.864204 -73.41977 " transform="matrix(0.500048,0,0,0.500048,0,107.510266)"/>
<path style="fill-rule:nonzero;fill:url(#linear6);stroke-width:3;stroke-linecap:round;stroke-linejoin:round;stroke:rgb(12.941177%,12.941177%,12.941177%);stroke-opacity:1;stroke-miterlimit:4;" d="M 349.247898 -73.41977 C 340.451863 -73.41977 333.374414 -66.748532 333.374414 -58.468073 L 333.374414 -56.616687 C 333.374414 -48.336228 340.451863 -41.66499 349.247898 -41.66499 L 370.417752 -41.66499 L 370.417752 127.66259 L 349.247898 127.66259 C 340.451863 127.66259 333.374414 134.333828 333.374414 142.614287 L 333.374414 144.465673 C 333.374414 152.746132 340.451863 159.41737 349.247898 159.41737 L 387.220835 159.41737 C 391.29857 159.41737 394.985718 157.698784 397.672962 154.902176 C 400.453946 152.214933 402.16472 148.535597 402.16472 144.465673 L 402.16472 -58.468073 C 402.16472 -62.530185 400.453946 -66.209521 397.680773 -68.896765 C 394.985718 -71.693373 391.29857 -73.41977 387.220835 -73.41977 Z M 349.247898 -73.41977 " transform="matrix(0.500048,0,0,0.500048,0,107.510266)"/>
<path style="fill-rule:nonzero;fill:url(#linear7);stroke-width:3;stroke-linecap:round;stroke-linejoin:round;stroke:rgb(12.941177%,12.941177%,12.941177%);stroke-opacity:1;stroke-miterlimit:4;" d="M 250.843233 -25.932118 C 250.686998 -25.932118 250.530763 -25.932118 250.366716 -25.932118 C 247.31232 -25.877435 244.242301 -24.940025 241.539434 -23.04958 C 234.336997 -18.003187 232.594976 -8.144754 237.641369 -0.934505 L 276.957927 55.216383 L 244.343854 101.782249 C 239.305272 108.992498 241.039482 118.850931 248.241919 123.897324 L 248.304413 123.936383 C 255.50685 128.982776 265.373096 127.240755 270.411677 120.038318 L 355.083279 -0.879822 C 359.660967 -7.418261 358.65325 -16.136178 353.052223 -21.471606 C 352.458529 -22.034052 351.817966 -22.565252 351.130531 -23.04958 C 343.928094 -28.095973 334.061849 -26.353952 329.015456 -19.151515 L 296.331077 27.531527 L 263.646698 -19.151515 C 260.592302 -23.510474 255.77245 -25.869624 250.843233 -25.932118 Z M 250.843233 -25.932118 " transform="matrix(0.500048,0,0,0.500048,0,107.510266)"/>
</g>
</svg>

<svg xmlns="http://www.w3.org/2000/svg" width="256pt" height="256pt" viewBox="0 0 256 256"><defs><linearGradient id="a" gradientUnits="userSpaceOnUse" x1="254" y1="233.5" x2="254" y2="254.667" gradientTransform="matrix(.50005 0 0 .50005 0 107.51)"><stop offset="0" stop-opacity=".275"/><stop offset="1" stop-opacity="0"/></linearGradient><radialGradient id="b" gradientUnits="userSpaceOnUse" cx="450.909" cy="189.579" fx="450.909" fy="189.579" r="21.167" gradientTransform="matrix(0 -.62506 -1.1251 0 427.63 508.763)"><stop offset="0" stop-opacity=".314"/><stop offset=".222" stop-opacity=".275"/><stop offset="1" stop-opacity="0"/></radialGradient><radialGradient id="c" gradientUnits="userSpaceOnUse" cx="450.909" cy="189.579" fx="450.909" fy="189.579" r="21.167" gradientTransform="matrix(0 .62506 1.1251 0 -173.605 -60.22)"><stop offset="0" stop-opacity=".314"/><stop offset=".222" stop-opacity=".275"/><stop offset="1" stop-opacity="0"/></radialGradient><radialGradient id="d" gradientUnits="userSpaceOnUse" cx="450.909" cy="189.579" fx="450.909" fy="189.579" r="21.167" gradientTransform="matrix(0 -.62506 1.1251 0 -173.605 508.763)"><stop offset="0" stop-opacity=".314"/><stop offset=".222" stop-opacity=".275"/><stop offset="1" stop-opacity="0"/></radialGradient><radialGradient id="e" gradientUnits="userSpaceOnUse" cx="450.909" cy="189.579" fx="450.909" fy="189.579" r="21.167" gradientTransform="matrix(0 .62506 -1.1251 0 427.63 -60.22)"><stop offset="0" stop-opacity=".314"/><stop offset=".222" stop-opacity=".275"/><stop offset="1" stop-opacity="0"/></radialGradient><linearGradient id="f" gradientUnits="userSpaceOnUse" x1="306.917" y1="-25.792" x2="305.955" y2="-135.329" gradientTransform="matrix(.6028 0 0 1.7393 -46.832 269.13)"><stop offset="0" stop-color="#424242"/><stop offset="1" stop-color="#616161"/></linearGradient><linearGradient id="g" gradientUnits="userSpaceOnUse" x1="84.667" y1="233.5" x2="84.667" y2="-168.667" gradientTransform="matrix(3.77953 0 0 3.77953 -40 852.598)"><stop offset="0" stop-color="#42a5f5"/><stop offset="1" stop-color="#64b5f6"/></linearGradient><linearGradient id="h" gradientUnits="userSpaceOnUse" x1="402.167" y1=".667" x2="402.167" y2="-31.083" gradientTransform="translate(31.75 10.583)"><stop offset="0" stop-color="#42a5f5"/><stop offset="1" stop-color="#64b5f6"/></linearGradient><linearGradient id="i" gradientUnits="userSpaceOnUse" x1="402.167" y1="95.917" x2="402.167" y2="64.167" gradientTransform="translate(31.75 10.583)"><stop offset="0" stop-color="#42a5f5"/><stop offset="1" stop-color="#64b5f6"/></linearGradient><linearGradient id="j" gradientUnits="userSpaceOnUse" x1="158.75" y1="148.833" x2="158.75" y2="-84" gradientTransform="translate(42.333 10.583)"><stop offset="0" stop-color="#42a5f5"/><stop offset="1" stop-color="#64b5f6"/></linearGradient><linearGradient id="k" gradientUnits="userSpaceOnUse" x1="338.667" y1="148.833" x2="338.667" y2="-84" gradientTransform="translate(31.75 10.583)"><stop offset="0" stop-color="#42a5f5"/><stop offset="1" stop-color="#64b5f6"/></linearGradient><linearGradient id="l" gradientUnits="userSpaceOnUse" x1="960" y1="1255.118" x2="960" y2="655.118" gradientTransform="matrix(.26458 0 0 .26458 31.75 -204.417)"><stop offset="0" stop-color="#e0e0e0"/><stop offset="1" stop-color="#eee"/></linearGradient></defs><path d="M37.047 224.27H216.98v10.585H37.047zm0 0" fill="url(#a)"/><path d="M216.98 224.27h21.168v-10.583H216.98zm0 0" fill="url(#b)"/><path d="M37.047 224.27H15.875v10.585h21.172zm0 0" fill="url(#c)"/><path d="M37.047 224.27H15.875v-10.583h21.172zm0 0" fill="url(#d)"/><path d="M216.98 224.27h21.168v10.585H216.98zm0 0" fill="url(#e)"/><path d="M26.46 33.754h201.102c5.848 0 10.586 4.738 10.586 10.582v169.351c0 5.844-4.738 10.583-10.585 10.583H26.46c-5.844 0-10.586-4.739-10.586-10.583V44.337c0-5.844 4.742-10.582 10.586-10.582zm0 0" fill="url(#f)"/><path d="M200 255.123c-44.316 0-80.011 35.666-80.011 79.983V1615.12c0 44.317 35.695 79.983 80.012 79.983H519.99V255.124zm0 0" transform="scale(.1323)" fill="url(#g)" stroke-width="11.339" stroke-linecap="round" stroke-linejoin="round" stroke="#212121"/><path d="M26.46 224.375a10.561 10.561 0 0 1-10.585-10.582v-2.754a10.562 10.562 0 0 0 10.586 10.586h201.101a10.562 10.562 0 0 0 10.586-10.586v2.754a10.561 10.561 0 0 1-10.585 10.582zm0 0" fill-opacity=".235"/><path d="M26.46 34.363A10.564 10.564 0 0 0 15.876 44.95v2.75a10.564 10.564 0 0 1 10.586-10.586h201.101A10.564 10.564 0 0 1 238.149 47.7v-2.75a10.564 10.564 0 0 0-10.585-10.586zm0 0" fill="#fff" fill-opacity=".392"/><path d="M26.46 33.004c-6.265 0-11.335 5.066-11.335 11.332v169.351a11.33 11.33 0 0 0 11.336 11.336h201.101a11.33 11.33 0 0 0 11.336-11.335V44.335c0-6.266-5.07-11.332-11.335-11.332zm0 1.5h201.102a9.796 9.796 0 0 1 9.836 9.832v169.351a9.796 9.796 0 0 1-9.835 9.833H26.46a9.796 9.796 0 0 1-9.836-9.833V44.337a9.796 9.796 0 0 1 9.836-9.832zm0 0" fill="#212121"/><path d="M439.208-20.503c8.765 0 15.874 7.109 15.874 15.881 0 8.765-7.11 15.874-15.874 15.874-8.765 0-15.873-7.109-15.873-15.874 0-8.772 7.108-15.88 15.873-15.88zm0 0" transform="matrix(.50005 0 0 .50005 0 107.51)" fill="url(#h)" stroke-width="3" stroke-linecap="round" stroke-linejoin="round" stroke="#212121"/><path d="M439.208 74.754c8.765 0 15.874 7.1 15.874 15.873 0 8.765-7.11 15.874-15.874 15.874-8.765 0-15.873-7.11-15.873-15.874 0-8.773 7.108-15.873 15.873-15.873zm0 0" transform="matrix(.50005 0 0 .50005 0 107.51)" fill="url(#i)" stroke-width="3" stroke-linecap="round" stroke-linejoin="round" stroke="#212121"/><path d="M194.864-73.42c-4.078 0-7.765 1.727-10.452 4.515-2.78 2.695-4.492 6.367-4.492 10.437v202.934c0 4.07 1.711 7.749 4.492 10.436 2.687 2.797 6.374 4.515 10.452 4.515h37.973c8.788 0 15.874-6.67 15.874-14.951v-1.852c0-8.28-7.086-14.951-15.874-14.951h-21.17V-41.665h21.17c8.788 0 15.874-6.671 15.874-14.952v-1.851c0-8.28-7.086-14.952-15.874-14.952zm0 0" transform="matrix(.50005 0 0 .50005 0 107.51)" fill="url(#j)" stroke-width="3" stroke-linecap="round" stroke-linejoin="round" stroke="#212121"/><path d="M349.248-73.42c-8.796 0-15.874 6.671-15.874 14.952v1.851c0 8.28 7.078 14.952 15.874 14.952h21.17v169.328h-21.17c-8.796 0-15.874 6.67-15.874 14.951v1.852c0 8.28 7.078 14.951 15.874 14.951h37.973c4.078 0 7.765-1.718 10.452-4.515 2.78-2.687 4.492-6.366 4.492-10.436V-58.468c0-4.062-1.711-7.742-4.484-10.429-2.695-2.796-6.382-4.523-10.46-4.523zm0 0" transform="matrix(.50005 0 0 .50005 0 107.51)" fill="url(#k)" stroke-width="3" stroke-linecap="round" stroke-linejoin="round" stroke="#212121"/><path d="M250.843-25.932h-.476a15.844 15.844 0 0 0-8.828 2.882 15.846 15.846 0 0 0-3.898 22.115l39.317 56.151-32.614 46.566a15.853 15.853 0 0 0 3.898 22.115l.062.04a15.837 15.837 0 0 0 22.108-3.899L355.083-.88a15.848 15.848 0 0 0-2.03-20.592 17.216 17.216 0 0 0-1.922-1.578 15.847 15.847 0 0 0-22.116 3.898l-32.684 46.684-32.684-46.684a15.84 15.84 0 0 0-12.804-6.78zm0 0" transform="matrix(.50005 0 0 .50005 0 107.51)" fill="url(#l)" stroke-width="3" stroke-linecap="round" stroke-linejoin="round" stroke="#212121"/></svg>
